!!!!SEGMENT: pl-wtm--r-1519--001-002_stefani-jozef--naszych-pol-biednych-chat-mazurek.krn
!!!cenid: 18xx:2239
!!!COM: Stefani, Józef
!!!COM-rismID: pe30024097
!!!CDT: 1800/04/16-1876/03/19
!!!CNT: Polish
!!!OPR: Naszych pól, biednych chat
!!!OTL: Mazurek
!!!OMV: 002
!!!PDT:
!!!AGN:
!!!YEC: Copyright 2022 Narodowy Instytut Fryderyka Chopina (https://polishscores.org)
!!!YEM: License CC-BY-4.0 (https://creativecommons.org/licenses/by/4.0)
!!!SMS-siglum: PL-Wtm
!!!SMS-shelfmark: R 1519
!!!SMS-shelfwork: 001-002 M
!!!SMS-variant:
!!!SMS-altvar:
!!!NIFC-rismSourceID: 1001120396
!!!NIFC-rismChildID: 1001120396
!!!NIFC-islandoraID: pl-wtm:26194
!!!URL-pdf-islandora: https://repozytorium.nifc.pl/islandora/object/pl-wtm%3A26194/datastream/PDF/view
!!!URL-scan: https://polish.musicsources.pl/pl/lokalizacje/galeria/rekopisy/6325 @EN{Scan on Polish Music Sources Website} @PL{Skany w portalu Dziedzictwo Muzyki Polskiej w otwartym dostępie}
!!!IIIF:
!!!ONB-nifc: UWAGA: części: 1. Andantino, 2. Mazurek
!!!OMD: All.o. moderato.
!!!AIN: 1 empty 2 forte
!!!key:
**kern	**kern	**dynam	**kern	**text	**dynam
*part3	*part2	*	*part1	*	*
*staff3	*staff2	*	*staff1	*	*
*Iforte	*Iforte	*	*Iempty	*	*
*I"Fortepian	*I"Fortepian	*	*I"Śpiew	*	*
*I'pf	*I'pf	*	*I'V	*	*
*clefF4	*clefG2	*	*clefG2	*	*
*k[f#]	*k[f#]	*	*k[f#]	*	*
*G:	*G:	*	*G:	*	*
*M3/8	*M3/8	*	*M3/8	*	*
=1	=1	=1	=1	=1	=1
*all\right	*all\right	*	*all\right	*	*
16GG/	16b\LL 16g\	p	16.b\	Tu	.
16r	32r	.	.	.	.
.	32ee\JJk 32cc\	.	32ee\	iest	.
!LO:TX:t=P:problem=all\right&colon; global	!	!	!	!	!
16d\ 16B\ 16G\	32dd\ 32b\	.	4dd\	woń	.
.	(32ddd\LLL	.	.	.	.
16r	32eee\	.	.	.	.
.	32fff#\JJJ	.	.	.	.
8d\ 8B\ 8G\	16ggg\)	sf	.	.	.
.	16r	.	.	.	.
=2	=2	=2	=2	=2	=2
16GG/	16gg\LL 16b\	.	16.gg\	La-	.
16r	32r	.	.	.	.
.	32b\JJk 32g\	.	32b\	-sów	.
16d\ 16B\ 16G\	32dd\LLL 32b\	.	4dd\	chłód	.
.	(>32gg\	.	.	.	.
16r	32aa\	.	.	.	.
.	32aa#X\JJJ	.	.	.	.
8d\ 8B\ 8G\	16bb\)	sf	.	.	.
.	16r	.	.	.	.
=3	=3	=3	=3	=3	=3
*	*	*	*Xbrackettup	*	*
!	!	!	!LO:TUP:a	!	!
16D/ 16DD/	8r	.	(24dd\LL	Plen-	.
.	.	.	24cc#X\JJ)	.	.
16r	.	.	.	.	.
.	.	.	24ee'\	-ny	.
8r	16f#/ 16d/ 16c/ 16A/	.	8dd\	Kłos	.
.	16r	.	.	.	.
!	!	!LO:DY:rj	!	!	!
8D/ 8DD/	8f#/ 8d/ 8c/ 8A/	sf	16.a/LL	na	.
.	.	.	32b/JJk	.	.
!!LO:LB:g=original
=4	=4	=4	=4	=4	=4
16G\ 16GG\	16g/ 16d/ 16B/	.	16g/	ni-	.
16r	16r	.	16r	.	.
4G\ 4GG\	4d/ 4B^>/	.	4d/	-wie	.
=5	=5	=5	=5	=5	=5
16GG/	16b\LL 16g\	.	16.b\	Wier-	.
16r	32r	.	.	.	.
.	32ee\JJk 32cc\	.	32ee\	-na	.
16d\ 16B\ 16G\	32dd\ 32b\	.	4dd\	dłoń	.
.	(32ddd\LLL	.	.	.	.
16r	32eee\	.	.	.	.
.	32fff#\JJJ	.	.	.	.
16d\ 16B\ 16G\	16ggg\)	.	.	.	.
16r	16r	.	.	.	.
=6	=6	=6	=6	=6	=6
16GG/ 16GGG/	16cc#X\LL 16a\	.	16.cc#X\	pię-	.
16r	32r	.	.	.	.
.	32dd\JJk 32b\	.	32dd\	-kny	.
!	!	!LO:DY:rj	!	!	!
16E/ 16EE/	16gg\ 16b\	f	8gg;\	gród	.
16r;	16r;	.	.	.	.
16.E/LL 16.EE/	16.g/LL 16.e/	.	16.g/	Ah	.
32C#X/JJk 32CC#X/	32a/JJk 32g/ 32e/	.	32a/	tu	.
=7	=7	=7	=7	=7	=7
!	!	!	!LO:TX:t=P:problem=klamra łukowa	!	!
!	!	!	!LO:TUP:a	!	!
8D/ 8DD/	8b/ 8g/ 8d/	.	24b\LL	mo-	.
.	.	.	24g\	.	.
.	.	.	24ee\JJ	.	.
8r	8r	.	16.dd\	-żna	.
.	.	.	(32dd\	żyć	.
!	!	!LO:DY:rj	!	!	!
16D/ 16DD/	16r	p	16.ee\)	.	.
16r	16f#/ 16d/ 16c/ 16A/	.	.	.	.
.	.	.	32ff#\	szczę-	.
!!LO:LB:g=original
=8	=8	=8	=8	=8	=8
16G\ 16GG\	16g/ 16d/ 16B/	.	16gg\	-sli-	.
16r	16r	.	16r	.	.
!	!	!LO:DY:rj	!	!	!
8GG/ 8GGG/	8gg\ 8b\ 8g\	f	8g/	-wie!	.
!	!	!	!	!	!LO:DY:rj
8r	8r	.	8dd\	La	f
=9	=9	=9	=9	=9	=9
8D/ 8DD/	8r	mf	(16dd\LL	la	.
.	.	.	16cc\JJ)	.	.
8r	16f#/ 16d/ 16c/ 16A/	.	8.aa\	la	.
.	16r	.	.	.	.
8r	8f#/ 8d/ 8c/ 8A/	.	.	.	.
.	.	.	16cc\	la	.
=10	=10	=10	=10	=10	=10
8D/ 8DD/	8r	.	16.b\	la	.
.	.	.	32ee\	la	.
8r	16g/ 16d/ 16B/	.	4dd\	la	.
.	16r	.	.	.	.
8r	8g/ 8d/ 8B/	.	.	.	.
=11	=11	=11	=11	=11	=11
!	!	!	!LO:TUP:a	!	!
!	!	!	!LO:TX:t=P:problem=klamra łukowa	!	!
8D/ 8DD/	8r	.	24dd\LL	la	.
.	.	.	24ee\	.	.
.	.	.	24dd\JJ	.	.
8r	16f#/ 16d/ 16c/ 16A/	.	8cc\	la	.
.	16r	.	.	.	.
8r	8f#/ 8d/ 8c/ 8A/	.	16.a/	la	.
.	.	.	32b/	la	.
!!LO:LB:g=original
=12	=12	=12	=12	=12	=12
8D/ 8DD/	8r	.	16.g/	la	.
.	.	.	32e-X/	la	.
8r	16g/ 16d/ 16B/	.	8d/	la	.
.	16r	.	.	.	.
!	!	!	!	!	!LO:DY:rj
8r	8g/ 8d/ 8B/	.	8dd\	la	pp
=13	=13	=13	=13	=13	=13
8D/ 8DD/	16r	.	(16dd\LL	la	.
.	16f#/ 16d/ 16c/ 16A/	.	16cc\JJ)	.	.
8r	8r	.	8.aa\	la	.
8r	8f#/ 8d/ 8c/ 8A/	.	.	.	.
.	.	.	16cc\	la	.
=14	=14	=14	=14	=14	=14
8G\ 8GG\	8r	.	16.b\	la	.
.	.	.	32ee\	la	.
8r	16g/ 16d/ 16B/	.	8dd\	la	.
.	16r	.	.	.	.
16.E/LL 16.EE/	16.g/LL 16.e/	.	16.gg\	Ah	.
32C#X/JJk 32CC#X/	32a/JJk 32g/ 32e/	.	32aa\	tu	.
=15	=15	=15	=15	=15	=15
!	!	!LO:DY:rj	!	!	!LO:DY:rj
8D/ 8DD/	8b/ 8g/ 8d/	f	(16.bb;\LL	mo-	f
.	.	.	32gg\JJk)	.	.
8r;	8r;	.	(16dd\LL	-żna	.
.	.	.	16b\JJ)	.	.
16D/ 16DD/	16f#/ 16d/ 16c/ 16A/	.	16.ee;\	zyć	.
16r;	16r;	.	.	.	.
.	.	.	32dd\	szczę-	.
!!LO:PB:g=original
=16	=16	=16	=16	=16	=16
16G\ 16GG\	16g/ 16d/ 16B/	.	16dd\	-śli-	.
16r	16r	f	16r	.	.
16.G\LL 16.GG\	16.gg\LL 16.b\ 16.g\	.	8g/	-wie.	.
32d\K 32D\	32dd\K	.	.	.	.
16.B\ 16.BB\	16.b\	.	8r	.	.
32G\JJk 32GG\	32g\JJk	.	.	.	.
=17	=17	=17	=17	=17	=17
16D/ 16DD/	16.f#/LL 16.d/	.	4.r	.	.
16r	.	.	.	.	.
.	32g/JJk 32e/	.	.	.	.
8c\L 8A\ 8D\	16.a/LL 16.f#/	.	.	.	.
.	32b/JJk 32g/	.	.	.	.
8c\J 8A\ 8D\	16.cc\LL 16.a\	.	.	.	.
.	32ee\JJk 32cc\	.	.	.	.
=18	=18	=18	=18	=18	=18
*	*Xtuplet	*	*	*	*
16G/ 16GG/	24ee\LL 24cc\	.	8r	.	.
.	24cc#X\ 24a#X\	.	.	.	.
16r	.	.	.	.	.
.	24dd\JJ 24b\	.	.	.	.
8B\ 8G\ 8D\	8b/ 8g/	.	8r	.	.
16.E/LL 16.EE/	16.g/LL 16.e/	.	16.gg\	Ah	<
!	!LO:SIC:v:n=1:s=32an	!	!	!	!
32C#X/JJk 32CC#X/	32a#/JJk 32g/ 32e/	.	32aa\	tu	[[
=19	=19	=19	=19	=19	=19
!	!	!	!LO:TUP:a	!	!LO:DY:a
!	!	!LO:DY:rj	!LO:TX:t=P:problem=klamra łukowa	!	!
16D/ 16DD/	16b/ 16g/ 16d/	f	24bb\LL	mo-	f
.	.	.	24ff#\	.	.
16r	16r	.	.	.	.
.	.	.	24gg\JJ	.	.
!	!	!	!LO:TUP:a	!	!
!	!	!	!LO:TX:t=P:problem=klamra łukowa	!	!
8r	8r	.	24cc#X\LL	-żna	.
.	.	.	24dd\	.	.
.	.	.	24b\JJ	.	.
!	!	!LO:DY:rj	!	!	!
8D/ 8DD/	8f#/ 8d/ 8c/ 8A;/	p	16.ee;\	zyć	.
.	.	.	32dd\	szczę-	.
=20	=20	=20	=20	=20	=20
16G\ 16GG\	16g/ 16d/ 16B/	.	16dd\	-śli-	.
16r	16r	.	16r	.	.
!	!	!LO:DY:rj	!	!	!
8GG/ 8GGG/	8gg\ 8dd\ 8b\ 8g\	f	8g/	-wie.	.
8r	8r	.	8r	.	.
!!LO:LB:g=original
=21	=21	=21	=21	=21	=21
16D/ 16DD/	16.a/LL 16.f#/	.	4.r	.	.
16r	.	.	.	.	.
.	32b/JJk 32g/	.	.	.	.
8c\L 8A\ 8D\	16.cc/LL 16.a/	.	.	.	.
.	32dd/JJk 32b/	.	.	.	.
8c\J 8A\ 8D\	16.ee\LL 16.cc\	.	.	.	.
.	32ff#\JJk 32a\	.	.	.	.
=22	=22	=22	=22	=22	=22
16B\ 16G\	16gg\ 16b\	.	8r	.	.
16r	16r	.	.	.	.
8G/ 8GG/	8gg\ 8b\	.	8r	.	.
8r	8r	.	16.f#/	ser-	.
.	.	.	32g/	-ce	.
=23	=23	=23	=23	=23	=23
16D/ 16DD/	16r	sf	8b/	wier-	.
16r	16f#/ 16d/ 16A/	.	.	.	.
8D/ 8DD/	16r	.	16a/	-nie	.
.	16f#/LL 16d/ 16A/	.	16r	.	.
8r	16f#/ 16d/ 16A/	.	16.dd\	z_ser-	.
.	16f#/JJ 16d/ 16A/	.	.	.	.
.	.	.	32ee\	-cem	.
=24	=24	=24	=24	=24	=24
*rep	*rep	*	*	*	*
16D/ 16DD/	16r	sf	8ff#\	bi-	.
16r	16f#/ 16d/ 16A/	.	.	.	.
8D/ 8DD/	16r	.	16dd\	-je	.
.	16f#/LL 16d/ 16A/	.	16r	.	.
8r	16f#/ 16d/ 16A/	.	16.b/	Szcze-	.
.	16f#/JJ 16d/ 16A/	.	.	.	.
.	.	.	32a/	-re	.
*Xrep	*Xrep	*	*	*	*
!!LO:LB:g=original
=25	=25	=25	=25	=25	=25
16AA/ 16AAA/	16r	.	8d#X/	czu-	.
!	!LO:SIC:v:s=16g 16c# 16A	!	!	!	!
16r	16g/ 16c/ 16A#X/	sf	.	.	.
!	!LO:N:vis=8	!	!	!	!
8AA/ 8AAA/	16r	.	8e/	-cia	.
!	!LO:SIC:v:s=16gLL 16c# 16A	!	!	!	!
.	16g/LL 16c/ 16A#/	.	.	.	.
!	!LO:SIC:v:s=16g 16c# 16A	!	!	!	!
8r	16g/ 16c/ 16A#/	.	16.b/	łą-	.
!	!LO:SIC:v:s=16gJJ 16c# 16A	!	!	!	!
.	16g/JJ 16c/ 16A#/	.	.	.	.
.	.	.	32a/	-czą	.
=26	=26	=26	=26	=26	=26
16D/ 16DD/	16r	.	4f#/	się	.
16r	16f#/ 16d/ 16A/	.	.	.	.
!	!	!LO:DY:rj	!	!	!
8D/ 8DD/	16r	sf	.	.	.
.	16f#/LL 16d/ 16A/	.	.	.	.
8r	16f#/ 16d/ 16A/	.	16.f#/	Ah	.
.	16f#/JJ 16d/ 16A/	.	.	.	.
.	.	.	32g/	ja	.
=27	=27	=27	=27	=27	=27
*rep	*rep	*	*	*	*
!	!	!	!LO:N:vis=8.	!	!
16D/ 16DD/	16r	.	16.b/LL	tu-	.
16r	16f#/ 16d/ 16A/	.	.	.	.
!	!	!LO:DY:rj	!LO:N:vis=16	!	!
.	.	sf	32a/JJk	.	.
!	!	!	!LO:N:vis=16	!	!
8D/ 8DD/	16r	.	8a/	-taj	.
.	16f#/LL 16d/ 16A/	.	.	.	.
8r	16f#/ 16d/ 16A/	.	16.dd\	tyl-	.
.	16f#/JJ 16d/ 16A/	.	.	.	.
.	.	.	32ee\	-ko	.
*Xrep	*Xrep	*	*	*	*
=28	=28	=28	=28	=28	=28
*rep	*rep	*	*	*	*
16D/ 16DD/	16r	.	8ff#\	ży-	.
16r	16f#/ 16d/ 16A/	.	.	.	.
!	!	!LO:DY:rj	!	!	!
8D/ 8DD/	16r	sf	8dd\	-ję	.
.	16f#/LL 16d/ 16A/	.	.	.	.
8r	16f#/ 16d/ 16A/	.	16.cc#X^\	Tu-	.
.	16f#/JJ 16d/ 16A/	.	.	.	.
.	.	.	32b\	-taj	.
*Xrep	*Xrep	*	*	*	*
!!LO:LB:g=original
=29	=29	=29	=29	=29	=29
16AA/ 16AAA/	16r	sf	8.a/	więc	.
16r	16g/ 16e/ 16A/	.	.	.	.
8AA/ 8AAA/	16r	.	.	.	.
.	16g/LL 16e/ 16A/	.	16gg\	i	.
8r	16g/ 16e/ 16A/	.	16.b\	um-	.
.	16g/JJ 16e/ 16A/	.	.	.	.
.	.	.	32cc#X\	-rzeć	.
=30	=30	=30	=30	=30	=30
16D/ 16DD/	16f#/ 16d/ 16A/	.	16dd\	chcę.	.
16r	16r	.	16r	.	.
4F#/ 4FF#/	4ccn/ 4a/ 4d^/	.	4ccn\	Ah!	.
!!LO:PB:g=original
=31	=31	=31	=31	=31	=31
!	!	!LO:DY:rj	!	!	!
16G/ 16GG/	8r	p	16.b\	Na-	.
16r	.	.	.	.	.
.	.	.	32ee\	-szych	.
8r	16d/ 16B/	.	4dd\	pól	.
.	16r	.	.	.	.
8G/ 8GG/	8g/ 8d/ 8B/	.	.	.	.
=32	=32	=32	=32	=32	=32
16G/ 16GG/	8r	.	16.gg\	bie-	.
16r	.	.	.	.	.
.	.	.	32b\	-dnych	.
8r	16d/ 16B/	.	4dd\	chat	.
.	16r	.	.	.	.
8G/ 8GG/	8g/ 8d/ 8B/	.	.	.	.
=33	=33	=33	=33	=33	=33
*	*	*	*Xtuplet	*	*
!	!	!	!LO:TUP:a	!	!
16D/ 16DD/	8r	.	(24dd\LL	Czy-	.
.	.	.	24cc#X\JJ)	.	.
16r	.	.	.	.	.
.	.	.	24ee\	-stych	.
8r	16f#/ 16d/ 16c/ 16A/	.	8dd\	wód	.
.	16r	.	.	.	.
8D/ 8DD/	8f#/ 8d/ 8c/	.	16.a/LL	stru-	.
.	.	.	32b/JJk	.	.
=34	=34	=34	=34	=34	=34
!	!LO:N:vis=16	!	!	!	!
16G\ 16GG\	8r	.	16g/	-mie-	.
16r	.	.	16r	.	.
8r	16d/ 16B/	.	4d/	-nie	.
.	16r	.	.	.	.
!	!	!LO:DY:a	!	!	!
8G\ 8GG\	8g/ 8d/ 8B/	sf	.	.	.
!!LO:LB:g=original
=35	=35	=35	=35	=35	=35
16G/ 16GG/	8r	.	16.b\	Mi-	.
16r	.	.	.	.	.
.	.	.	32ee\	-mo	.
8r	16d/ 16B/	.	8dd\	ból	.
.	16r	.	.	.	.
16.E/LL 16.EE/	16.g/LL 16.e/	<	16.gg\	mi-	.
32C#X/JJk 32CC#X/	32a/JJk 32g/ 32e/	[[	32aa\	-mo	.
=36	=36	=36	=36	=36	=36
8D/ 8DD/	8b/ 8g/ 8d/	f	32bb;\LLL	strat	.
.	.	.	(32aa\	.	.
.	.	.	32gg\	.	.
.	.	.	32ff#\JJJ)	.	.
!	!LO:TX:a:i:t=rall&colon;	!	!	!	!
8r	8r	.	(32ee\LLL	za-	.
.	.	.	32dd\JJJ)	.	.
.	.	.	(32cc\LLL	-świat	.
.	.	.	32b\JJJ)	.	.
8r;	8r;	.	(32a/LLL	ca-	.
.	.	.	32g/JJJ)	.	.
.	.	.	(32f#/LLL	-ły	.
.	.	.	32e/JJJ)	.	.
=37	=37	=37	=37	=37	=37
!	!	!LO:DY:rj	!	!	!
8D/ 8DD/	8ff#\ 8dd\ 8cc\ 8a\	f	32d/LLL	nie	.
.	.	.	32f#/	.	.
.	.	.	32a/JJJ	.	.
.	.	.	32cc\	za-	.
8r	8r	.	8.ee;\	-mie-	.
8r;	8r;	.	.	.	.
.	.	.	16dd\	-nie	.
!!LO:LB:g=original
=38	=38	=38	=38	=38	=38
*	*tuplet	*	*	*	*
!	!LO:TUP:a	!	!LO:TX:a:i:t=a tempo	!	!
8G/L 8GG/	24gg\LL 24b\ 24g\	.	4g/	nie	.
.	24gg\ 24b\ 24g\	.	.	.	.
.	24gg\JJ 24b\ 24g\	.	.	.	.
*	*rep	*	*	*	*
!	!LO:TUP:a	!	!	!	!
8G/ 8GG/	24gg\LL 24b\ 24g\	.	.	.	.
.	24gg\ 24b\ 24g\	.	.	.	.
.	24gg\JJ 24b\ 24g\	.	.	.	.
*	*Xrep	*	*	*	*
*	*rep	*	*	*	*
!	!LO:TUP:a	!	!	!	!
8G/J 8GG/	24gg\LL 24b\ 24g\	.	16.g/	Na-	.
.	24gg\ 24b\ 24g\	.	.	.	.
.	24gg\JJ 24b\ 24g\	.	.	.	.
.	.	.	32a/	-szych	.
*	*Xrep	*	*	*	*
=39	=39	=39	=39	=39	=39
*	*Xtuplet	*	*	*	*
8E/L 8EE/	24gg\LL 24b\ 24g\	.	4b\	pól	.
.	24gg\ 24b\ 24g\	.	.	.	.
.	24gg\JJ 24b\ 24g\	.	.	.	.
*	*rep	*	*	*	*
8E/ 8EE/	24gg\LL 24b\ 24g\	.	.	.	.
.	24gg\ 24b\ 24g\	.	.	.	.
.	24gg\JJ 24b\ 24g\	.	.	.	.
*	*Xrep	*	*	*	*
*	*rep	*	*	*	*
8E/J 8EE/	24gg\LL 24b\ 24g\	.	16.gg\	bie-	.
.	24gg\ 24b\ 24g\	.	.	.	.
.	24gg\JJ 24b\ 24g\	.	.	.	.
.	.	.	32b\	-dnych	.
*	*Xrep	*	*	*	*
=40	=40	=40	=40	=40	=40
8C/L 8CC/	24ee\LL 24cc\ 24g\	.	4ee\	chat	.
.	24ee\ 24cc\ 24g\	.	.	.	.
.	24ee\JJ 24cc\ 24g\	.	.	.	.
8BB/ 8BBB/	24ee\LL 24dd\ 24g#X\	.	.	.	.
.	24ee\ 24dd\ 24g#\	.	.	.	.
.	24ee\JJ 24dd\ 24g#\	.	.	.	.
8AA/J 8AAA/	24ee\LL 24cc\ 24a\	.	16.a/	Czy-	.
.	24ee\ 24cc\ 24a\	.	.	.	.
.	24ee\JJ 24cc\ 24a\	.	.	.	.
.	.	.	32ee\	-stych	.
=41	=41	=41	=41	=41	=41
16D/ 16DD/	16r	.	(16cc#X\LL	wód	.
16r	16dd\ 16b\ 16g\	.	16dd\JJ)	.	.
16D/ 16DD/	16r	.	(8.ee\L	stru-	.
16r	16gg\ 16b\ 16g\	.	.	.	.
16D/ 16DD/	16r	.	.	.	.
16r	16ff#\ 16cc\ 16a\	.	16dd\Jk)	.	.
!!LO:LB:g=original
=42	=42	=42	=42	=42	=42
8G/L 8GG/	24gg\LL 24b\ 24g\	.	16a#X/	-mie-	.
.	24gg\ 24b\ 24g\	.	.	.	.
.	.	.	16r	.	.
.	24gg\JJ 24b\ 24g\	.	.	.	.
*	*rep	*	*	*	*
8G/ 8GG/	24gg\LL 24b\ 24g\	.	8b/	-nie	.
.	24gg\ 24b\ 24g\	.	.	.	.
.	24gg\JJ 24b\ 24g\	.	.	.	.
*	*Xrep	*	*	*	*
*	*rep	*	*	*	*
8G/J 8GG/	24gg\LL 24b\ 24g\	.	16.g/	Mi-	.
.	24gg\ 24b\ 24g\	.	.	.	.
.	24gg\JJ 24b\ 24g\	.	.	.	.
.	.	.	32a#/	-mo	.
!	!	!	!LO:SIC:v:s=32an	!	!
*	*Xrep	*	*	*	*
=43	=43	=43	=43	=43	=43
8E/L 8EE/	24gg\LL 24b\ 24g\	.	4b\	ból	.
.	24gg\ 24b\ 24g\	.	.	.	.
.	24gg\JJ 24b\ 24g\	.	.	.	.
*	*rep	*	*	*	*
8E/ 8EE/	24gg\LL 24b\ 24g\	.	.	.	.
.	24gg\ 24b\ 24g\	.	.	.	.
.	24gg\JJ 24b\ 24g\	.	.	.	.
*	*Xrep	*	*	*	*
*	*rep	*	*	*	*
8E/J 8EE/	24gg\LL 24b\ 24g\	.	16.gg\	mi-	.
.	24gg\ 24b\ 24g\	.	.	.	.
.	24gg\JJ 24b\ 24g\	.	.	.	.
.	.	.	32b\	-mo	.
*	*Xrep	*	*	*	*
=44	=44	=44	=44	=44	=44
8C/L 8CC/	24ee\LL 24cc\ 24g\	.	4ee\	strat	.
.	24ee\ 24cc\ 24g\	.	.	.	.
.	24ee\JJ 24cc\ 24g\	.	.	.	.
8BB/ 8BBB/	24ee\LL 24dd\ 24g#X\	.	.	.	.
.	24ee\ 24dd\ 24g#\	.	.	.	.
.	24ee\JJ 24dd\ 24g#\	.	.	.	.
8AA/J 8AAA/	24ee\LL 24cc\ 24a\	.	16.a/	za	.
.	24ee\ 24cc\ 24a\	.	.	.	.
.	24ee\JJ 24cc\ 24a\	.	.	.	.
.	.	.	32ee\	świat	.
=45	=45	=45	=45	=45	=45
16D/ 16DD/	16r	.	16.cc#X\	ca-	.
16r	16dd\ 16b\ 16g\	.	.	.	.
.	.	.	32dd\	-ły	.
16D/ 16DD/	16r	.	8.ee\	nie	.
16r	16gg\ 16b\ 16g\	.	.	.	.
16D/ 16DD/	16r	.	.	.	.
16r	16ff#\ 16cc\ 16a\	.	16dd\	za-	.
!!LO:PB:g=original
=46	=46	=46	=46	=46	=46
8G/L 8GG/	16gg\LL 16b\ 16g\	.	4gg\	-mie-	.
.	16gg\ 16b\ 16g\	.	.	.	.
8G/ 8GG/	16gg\ 16b\ 16g\	.	.	.	.
.	16gg\JJ 16b\ 16g\	.	.	.	.
8E/J 8C/ 8CC/	16ee\LL 16cc\ 16g\	.	8ee\	-nie	.
.	16ee\JJ 16cc\ 16g\	.	.	.	.
=47	=47	=47	=47	=47	=47
8D/L 8DD/	16dd\LL 16b\ 16g\	.	4dd\	nie	.
.	16dd\ 16b\ 16g\	.	.	.	.
8D/ 8DD/	16dd\ 16b\ 16g\	.	.	.	.
.	16dd\JJ 16b\ 16g\	.	.	.	.
8D#X/J 8DD#X/	16ff#\LL 16cc\ 16a\	.	8ff#\	za-	.
.	16ff#\JJ 16cc\ 16a\	.	.	.	.
=48	=48	=48	=48	=48	=48
*	*tremolo	*	*	*	*
8E/L 8EE/	16gg\LL 16b\ 16g\	.	4gg\	-mie-	.
.	16gg\ 16b\ 16g\	.	.	.	.
8E/ 8EE/	16gg\ 16b\ 16g\	.	.	.	.
.	16gg\JJ 16b\ 16g\	.	.	.	.
*	*Xtremolo	*	*	*	*
8C/J 8CC/	16ee\LL 16cc\ 16g\	.	8ee\	-nie	.
.	16ee\JJ 16cc\ 16g\	.	.	.	.
=49	=49	=49	=49	=49	=49
*	*tremolo	*	*	*	*
8D/L 8DD/	16dd/LL 16b/ 16g/	.	4dd\	nie	.
.	16dd/ 16b/ 16g/	.	.	.	.
8D/ 8DD/	16dd/ 16b/ 16g/	.	.	.	.
.	16dd/JJ 16b/ 16g/	.	.	.	.
*	*Xtremolo	*	*	*	*
8D#X/J 8DD#X/	16ff#\LL 16cc\ 16a\	.	8ff#\	za-	.
.	16ff#\JJ 16cc\ 16a\	.	.	.	.
=50	=50	=50	=50	=50	=50
*	*tremolo	*	*	*	*
!	!	!	!LO:N:vis=4	!	!
8E/L 8EE/	16gg\LL 16b\ 16g\	.	8gg\	-mie-	.
.	16gg\ 16b\ 16g\	.	.	.	.
8E/J 8EE/	16gg\ 16b\ 16g\	.	16gg\	-nie	.
.	16gg\JJ 16b\ 16g\	.	16r	.	.
*	*Xtremolo	*	*	*	*
16.E/LL 16.EE/	16.gg\LL 16.ee\	.	16.gg\	za	.
32C#X/JJk 32CC#X/	32aa\JJk 32gg\ 32ee\	.	32aa\	świat	.
!!LO:LB:g=original
=51	=51	=51	=51	=51	=51
!	!	!LO:DY:rj	!	!	!
16D/ 16DD/	16bb\ 16gg\ 16dd\	f	(32bb\LLL	ca-	.
.	.	.	32aa\	.	.
16r	16r	p	32gg\	.	.
.	.	.	32aa\JJJ	.	.
16D/ 16DD/	16bb\ 16gg\ 16dd\	.	32bb\LLL	.	.
.	.	.	32ccc\	.	.
16r	16r	.	32ddd\	.	.
.	.	.	32ccc\JJJ	.	.
16D/ 16DD/	16gg\ 16dd\ 16b\	.	32bb\LLL	.	.
.	.	.	32aa\	.	.
16r	16r	.	32gg\	.	.
.	.	.	(32ff#\JJJ)	.	.
=52	=52	=52	=52	=52	=52
16D/ 16DD/	16dd/ 16b/ 16g/	.	32gg\LLL	.	.
.	.	.	32ff#\	.	.
16r	16r	.	32ee\	.	.
.	.	.	32dd\JJJ	.	.
16D/ 16DD/	16b/ 16g/ 16d/	.	32ee\LLL	.	.
.	.	.	32dd\	.	.
16r	16r	.	32cc\	.	.
.	.	.	32b\JJJ)	.	.
16D/ 16DD/	16g/ 16d/ 16B/	.	(32cc/LLL	-ły	.
.	.	.	32b/	.	.
16r	16r	.	32a/	.	.
.	.	.	32g/JJJ)	.	.
=53	=53	=53	=53	=53	=53
*tremolo	*tremolo	*	*	*	*
!	!LO:TX:a:t=....	!	!	!	!
16C/LL 16CC/	16a/LL 16g/ 16e'/	<	4a/	nie	.
16C/ 16CC/	16a/ 16g/ 16e'/	.	.	.	.
16C/ 16CC/	16a/ 16g/ 16e'/	.	.	.	.
16C/JJ 16CC/	16a/JJ 16g/ 16e'/	.	.	.	.
*Xtremolo	*Xtremolo	*	*	*	*
!	!	!LO:DY:rj	!	!	!
16C#X/LL 16CC#X/	16ee\LL 16b-X\ 16g\	[ sf	8ee\	za-	.
16C#/JJ 16CC#/	16ee\JJ 16b-\ 16g\	.	.	.	.
=54	=54	=54	=54	=54	=54
16D/ 16DD/	16r	.	(16cc#X\LL	-mie-	.
16r	16dd\ 16bn\ 16g\	<	16dd\JJ	.	.
16D/ 16DD/	16r	.	8.ee\)	.	.
16r	16dd\ 16b\ 16g\	.	.	.	.
16D/ 16DD/	16r	.	.	.	.
16r	16ff#\ 16dd\ 16cc\ 16a\	[[	16ff#\	-nie	.
!!LO:LB:g=original
=55	=55	=55	=55	=55	=55
!	!	!LO:DY:rj	!	!	!
16G\ 16GG\	16.b\LL 16.g\	f	8gg\	nie.	.
16r	.	.	.	.	.
.	32ee\JJk 32cc\	.	.	.	.
4d\ 4B\ 4G\	4dd\ 4b^\	.	8r	.	.
.	.	.	8r	.	.
=56	=56	=56	=56	=56	=56
16G/ 16GG/	16.gg\LL 16.b\ 16.g\	.	4.r	.	.
16r	.	.	.	.	.
.	32b\JJk 32g\	.	.	.	.
4d\ 4B\ 4G\	4dd\ 4b^\	.	.	.	.
=57	=57	=57	=57	=57	=57
*	*tuplet	*	*	*	*
!	!LO:TUP:a	!	!	!	!
!	!LO:TX:t=P:problem=klamra łukowa	!	!	!	!
16D/ 16DD/	24dd\LL	.	4.r	.	.
.	24cc#X\	.	.	.	.
16r	.	.	.	.	.
.	24ee\JJ	.	.	.	.
16c\ 16A\ 16F#\ 16D\	16dd\	.	.	.	.
16r	16r	.	.	.	.
!	!LO:TUP:b:problem=klamra łukowa	!	!	!	!
!	!LO:TX:t=P:problem=klamra łukowa	!	!	!	!
16c\ 16A\ 16F#\ 16D\	24a/LL	.	.	.	.
.	24ccn/	.	.	.	.
16r	.	.	.	.	.
.	24b/JJ	.	.	.	.
=58	=58	=58	=58	=58	=58
16B\ 16G\	16g/	.	4.r	.	.
16r	16r	.	.	.	.
4B\ 4G\	4d^^/	.	.	.	.
=59	=59	=59	=59	=59	=59
16G/ 16GG/	16.b\LL 16.g\	.	4.r	.	.
16r	.	.	.	.	.
.	32ee\JJk 32cc\	.	.	.	.
4d\ 4B\ 4G\	4dd\ 4b\	.	.	.	.
!!LO:LB:g=original
=60	=60	=60	=60	=60	=60
8C/ 8CC/	16.aa\LL 16.ff#\	.	4.r	.	.
.	32gg\JJk 32ee\	.	.	.	.
8c\L 8A\ 8E\ 8C\	8.ee\L 8.cc\	.	.	.	.
8c\J 8A\ 8E\ 8C\	.	.	.	.	.
.	16cc\Jk 16a\	.	.	.	.
=61	=61	=61	=61	=61	=61
*Xtuplet	*	*	*	*	*
(8qD/	.	.	.	.	.
!	!LO:TUP:b	!	!	!	!
!	!LO:TX:t=P:problem=klamra łukowa	!	!	!	!
24d'\LL)	24f#'/LL	<	4.r	.	.
24c#X'\	24g/ 24e'/	.	.	.	.
24cn'\JJ	24a/JJ 24f#'/	.	.	.	.
!	!LO:TUP:b	!	!	!	!
!	!LO:TX:t=P:problem=klamra łukowa	!	!	!	!
24B'\LL	24b/LL 24g'/	.	.	.	.
24A'\	24cc/ 24a'/	.	.	.	.
24G'\JJ	24cc#X/JJ 24a#X'/	.	.	.	.
!	!LO:TUP:a	!	!	!	!
!	!LO:TX:t=P:problem=klamra łukowa	!	!	!	!
24F#'\LL	24dd\LL 24b'\	.	.	.	.
24E'\	24ee\ 24ccn'\	.	.	.	.
!	!LO:SIC:v:n=2:s=24an	!	!	!	!
24D'\JJ	24ff#\JJ 24a#'\	[[	.	.	.
=62	=62	=62	=62	=62	=62
16G/ 16GG/	16gg\ 16b\	.	4.r	.	.
16r	16r	.	.	.	.
8G/ 8GG/	8g/ 8d/ 8B/	.	.	.	.
8r	8r	.	.	.	.
==	==	==	==	==	==
*-	*-	*-	*-	*-	*-
!!!system-decoration: s1{(s2,s3)}
!!!RDF**kern: > = above
!!!RDF**kern: < = below
!!!EED: Andrzej Borzym
!!!EEV: 2021-06-12
!!!ENC: Andrzej Kubiczek
!!!END: 2021-05-23
